src/assets/tokens/primeliquidberabtc.svg

<svg width="60" height="53" viewBox="0 0 60 53" fill="none" xmlns="http://www.w3.org/2000/svg">
<g clip-path="url(#clip0_4544_43446)">
<path d="M53.5143 21.2245C53.4653 20.9624 53.4039 20.7117 53.3058 20.4723C53.3426 20.4153 61.4829 9.87259 53.9435 3.35323C46.4159 -3.16616 37.6254 5.33642 37.5764 5.38201C36.1788 4.97168 34.7689 4.72093 33.3713 4.60695C33.3713 4.60695 33.3713 4.60695 33.359 4.60695C30.4902 4.16245 26.469 4.60695 26.469 4.60695C25.0836 4.72093 23.686 4.97168 22.3006 5.37058C22.2516 5.32499 13.4613 -3.17755 5.93378 3.34183C-1.59378 9.86121 6.53448 20.4153 6.57127 20.4609C6.48547 20.7117 6.4119 20.9624 6.36285 21.2132C5.55372 25.7266 0 27.1171 0 34.9814C0 42.9938 5.79889 49.3079 17.6419 49.3079H22.4968C22.5213 49.3307 24.3971 51.8156 28.2712 51.9636C28.2712 51.9636 29.1662 52.0547 31.2258 51.9864C35.3329 51.9864 37.3312 49.3534 37.3435 49.3193H42.1983C54.0412 49.3193 59.8401 43.0052 59.8401 34.9928C59.8769 27.1398 54.3232 25.7379 53.5143 21.2245Z" fill="white"/>
<path d="M43.3724 23.5707C43.9226 19.893 41.1225 17.916 37.2937 16.5971L38.5357 11.6152L35.5032 10.8595L34.294 15.7101C33.4968 15.5114 32.678 15.324 31.8644 15.1383L33.0822 10.2557L30.0515 9.5L28.8086 14.4801C28.1487 14.3299 27.501 14.1813 26.8722 14.025L26.8756 14.0094L22.6936 12.9652L21.8869 16.2041C21.8869 16.2041 24.1368 16.7197 24.0893 16.7517C25.3175 17.0583 25.5395 17.871 25.5023 18.5154L24.0876 24.1908C24.1722 24.2124 24.2819 24.2435 24.4028 24.2918C24.3018 24.2668 24.1938 24.2392 24.0824 24.2124L22.0993 32.1628C21.949 32.5359 21.5681 33.0956 20.7096 32.8831C20.7399 32.9272 18.5054 32.333 18.5054 32.333L17 35.8042L20.9463 36.788C21.6804 36.9719 22.3999 37.1645 23.1081 37.3459L21.8532 42.3848L24.8822 43.1405L26.1251 38.1552C26.9525 38.3798 27.7557 38.5871 28.5417 38.7823L27.3032 43.7443L30.3356 44.5L31.5906 39.4706C36.7616 40.4492 40.65 40.0545 42.2868 35.3775C43.6056 31.6118 42.2211 29.4395 39.5004 28.0231C41.4818 27.5662 42.9743 26.2628 43.3724 23.5707ZM36.4438 33.2865C35.5067 37.0523 29.1662 35.0165 27.1106 34.506L28.7758 27.8305C30.8314 28.3435 37.4232 29.3592 36.4438 33.2865ZM37.3818 23.5162C36.5267 26.9417 31.2494 25.2013 29.5376 24.7747L31.0473 18.7201C32.7592 19.1467 38.2722 19.9431 37.3818 23.5162Z" fill="#0E0A30"/>
</g>
<defs>
<clipPath id="clip0_4544_43446">
<rect width="60" height="51.2409" fill="white" transform="translate(0 0.879578)"/>
</clipPath>
</defs>
</svg>

<svg xmlns="http://www.w3.org/2000/svg" fill="none" viewBox="0 0 60 53"><g clip-path="url(#a)"><path fill="#fff" d="M53.514 21.225a4 4 0 0 0-.208-.753c.037-.057 8.177-10.6.638-17.119-7.528-6.52-16.319 1.983-16.368 2.029a21 21 0 0 0-4.205-.775h-.012c-2.869-.445-6.89 0-6.89 0a21.4 21.4 0 0 0-4.168.764c-.05-.046-8.84-8.549-16.367-2.03s.6 17.074.637 17.12c-.086.25-.16.501-.208.752C5.553 25.727 0 27.117 0 34.981c0 8.013 5.799 14.327 17.642 14.327h4.855c.024.023 1.9 2.508 5.774 2.656 0 0 .895.09 2.955.022 4.107 0 6.105-2.633 6.118-2.667h4.854c11.843 0 17.642-6.314 17.642-14.326.037-7.853-5.517-9.255-6.326-13.769"/><path fill="#0E0A30" d="M43.372 23.57c.55-3.677-2.25-5.654-6.078-6.973l1.242-4.982-3.033-.755-1.209 4.85c-.797-.199-1.616-.386-2.43-.572l1.218-4.882-3.03-.756-1.243 4.98q-.992-.223-1.937-.455l.004-.016-4.182-1.044-.807 3.24s2.25.515 2.202.547c1.229.306 1.45 1.119 1.413 1.763l-1.414 5.676c.084.021.194.053.315.1l-.32-.079-1.984 7.95c-.15.374-.53.934-1.39.721.03.044-2.204-.55-2.204-.55L17 35.804l3.946.984c.734.184 1.454.377 2.162.558l-1.255 5.039 3.03.756 1.242-4.986c.828.225 1.63.432 2.417.627l-1.239 4.962 3.033.756 1.255-5.03c5.17.98 9.059.584 10.696-4.093 1.319-3.765-.066-5.938-2.787-7.354 1.982-.457 3.474-1.76 3.872-4.452m-6.928 9.716c-.937 3.766-7.278 1.73-9.333 1.22l1.665-6.675c2.055.512 8.647 1.528 7.668 5.455m.938-9.77c-.855 3.426-6.133 1.685-7.844 1.259l1.51-6.055c1.711.427 7.224 1.223 6.334 4.796"/></g><defs><clipPath id="a"><path fill="#fff" d="M0 .88h60v51.24H0z"/></clipPath></defs></svg>
